src/assets/images/logo.svg

<svg xmlns="http://www.w3.org/2000/svg" height="42" width="118" alt="TikTok">
    <g clip-path="url(#clip0)">
        <path
            d="M9.87537 16.842V15.7233C9.49211 15.6721 9.10246 15.6401 8.70003 15.6401C3.90288 15.6338 0 19.5399 0 24.3475C0 27.2947 1.46917 29.9031 3.71764 31.4822C2.26763 29.9287 1.37974 27.8381 1.37974 25.5494C1.37974 20.8121 5.17403 16.9507 9.87537 16.842Z"
            fill="#25F4EE"
        ></path>
        <path
            d="M10.0862 29.5259C12.2261 29.5259 13.9763 27.819 14.053 25.6965L14.0594 6.72822H17.5215C17.4512 6.33824 17.4129 5.93548 17.4129 5.52632H12.686L12.6796 24.4946C12.603 26.6171 10.8527 28.324 8.71286 28.324C8.04854 28.324 7.42255 28.1578 6.86682 27.8637C7.58224 28.8674 8.75758 29.5259 10.0862 29.5259Z"
            fill="#25F4EE"
        ></path>
        <path
            d="M23.9923 13.166V12.1112C22.6701 12.1112 21.4436 11.7212 20.4088 11.0435C21.3286 12.0984 22.5742 12.8656 23.9923 13.166Z"
            fill="#25F4EE"
        ></path>
        <path
            d="M20.4088 11.0435C19.3995 9.88639 18.7927 8.37762 18.7927 6.72821H17.528C17.8537 8.53106 18.9269 10.0782 20.4088 11.0435Z"
            fill="#FE2C55"
        ></path>
        <path
            d="M8.70642 20.3646C6.51544 20.3646 4.73328 22.1483 4.73328 24.3411C4.73328 25.8691 5.602 27.1988 6.86676 27.8637C6.39408 27.2116 6.11302 26.4125 6.11302 25.543C6.11302 23.3502 7.89518 21.5665 10.0862 21.5665C10.495 21.5665 10.891 21.6368 11.2615 21.7519V16.9188C10.8782 16.8676 10.4886 16.8356 10.0862 16.8356C10.0159 16.8356 9.95202 16.842 9.88175 16.842V20.55C9.50488 20.4349 9.11523 20.3646 8.70642 20.3646Z"
            fill="#FE2C55"
        ></path>
        <path
            d="M23.9921 13.166V16.842C21.5392 16.842 19.2652 16.0557 17.4127 14.7259V24.3475C17.4127 29.1487 13.5099 33.0613 8.70631 33.0613C6.85388 33.0613 5.12921 32.4731 3.71753 31.4822C5.30806 33.1891 7.57569 34.2632 10.0861 34.2632C14.8832 34.2632 18.7925 30.357 18.7925 25.5494V15.9278C20.6449 17.2576 22.9189 18.0439 25.3718 18.0439V13.3131C24.8927 13.3131 24.4328 13.2619 23.9921 13.166Z"
            fill="#FE2C55"
        ></path>
        <path
            d="M17.4127 24.3475V14.7259C19.2652 16.0557 21.5392 16.842 23.9921 16.842V13.166C22.574 12.8656 21.3284 12.0984 20.4086 11.0435C18.9266 10.0782 17.8599 8.53106 17.5213 6.72821H14.0592L14.0528 25.6964C13.9762 27.8189 12.2259 29.5259 10.0861 29.5259C8.75742 29.5259 7.58847 28.8674 6.86028 27.8701C5.59551 27.1988 4.72679 25.8755 4.72679 24.3475C4.72679 22.1547 6.50895 20.371 8.69993 20.371C9.10874 20.371 9.50478 20.4413 9.87527 20.5564V16.8484C5.17393 16.9507 1.37964 20.8121 1.37964 25.5494C1.37964 27.8381 2.26753 29.9223 3.71753 31.4822C5.12921 32.4731 6.85389 33.0613 8.70632 33.0613C13.5035 33.0613 17.4127 29.1487 17.4127 24.3475Z"
            fill="black"
        ></path>
        <path
            d="M30.0477 13.1787H44.8225L43.4683 17.411H39.6357V33.0548H34.8577V17.411L30.0541 17.4173L30.0477 13.1787Z"
            fill="black"
        ></path>
        <path
            d="M69.0317 13.1787H84.1514L82.7972 17.411H78.6261V33.0548H73.8417V17.411L69.0381 17.4173L69.0317 13.1787Z"
            fill="black"
        ></path>
        <path d="M45.7295 19.5015H50.4628V33.0548H45.755L45.7295 19.5015Z" fill="black"></path>
        <path
            d="M52.347 13.1277H57.0802V22.3848L61.7688 17.7754H67.4155L61.4814 23.5356L68.1246 33.0548H62.9122L58.4791 26.4572L57.0739 27.8189V33.0548H52.3406V13.1277H52.347Z"
            fill="black"
        ></path>
        <path
            d="M102.49 13.1277H107.224V22.3848L111.912 17.7754H117.559L111.625 23.5356L118.268 33.0548H113.062L108.629 26.4572L107.224 27.8189V33.0548H102.49V13.1277Z"
            fill="black"
        ></path>
        <path
            d="M48.0929 17.9544C49.4088 17.9544 50.4755 16.8867 50.4755 15.5697C50.4755 14.2528 49.4088 13.1851 48.0929 13.1851C46.7771 13.1851 45.7103 14.2528 45.7103 15.5697C45.7103 16.8867 46.7771 17.9544 48.0929 17.9544Z"
            fill="black"
        ></path>
        <path
            d="M83.5445 24.942C83.5445 20.6779 86.8342 17.1808 91.0181 16.8548C90.8073 16.8356 90.5199 16.8292 90.3091 16.8292C85.8313 16.8292 82.2031 20.4605 82.2031 24.942C82.2031 29.4236 85.8313 33.0548 90.3091 33.0548C90.5199 33.0548 90.8073 33.042 91.0181 33.0293C86.8406 32.7032 83.5445 29.2062 83.5445 24.942Z"
            fill="#25F4EE"
        ></path>
        <path
            d="M92.8579 16.8292C92.6407 16.8292 92.3532 16.842 92.1425 16.8548C96.32 17.1808 99.6097 20.6779 99.6097 24.942C99.6097 29.2062 96.32 32.7032 92.1425 33.0293C92.3532 33.0484 92.6407 33.0548 92.8579 33.0548C97.3356 33.0548 100.964 29.4236 100.964 24.942C100.964 20.4605 97.3356 16.8292 92.8579 16.8292Z"
            fill="#FE2C55"
        ></path>
        <path
            d="M91.5803 28.8866C89.4021 28.8866 87.6391 27.1221 87.6391 24.942C87.6391 22.762 89.4021 20.9975 91.5803 20.9975C93.7585 20.9975 95.5215 22.762 95.5215 24.942C95.5215 27.1221 93.7522 28.8866 91.5803 28.8866ZM91.5803 16.8292C87.1026 16.8292 83.4744 20.4605 83.4744 24.942C83.4744 29.4236 87.1026 33.0548 91.5803 33.0548C96.0581 33.0548 99.6863 29.4236 99.6863 24.942C99.6863 20.4605 96.0581 16.8292 91.5803 16.8292Z"
            fill="black"
        ></path>
    </g>
    <defs>
        <clipPath id="clip0">
            <rect width="118" height="42" fill="white"></rect>
        </clipPath>
    </defs>
</svg>

<svg alt="TikTok" height="42" xmlns="http://www.w3.org/2000/svg" width="118">
    <path
        fill="#25F4EE"
        d="M9.875 16.842v-1.119A8.836 8.836 0 0 0 8.7 15.64c-4.797-.006-8.7 3.9-8.7 8.707a8.706 8.706 0 0 0 3.718 7.135A8.675 8.675 0 0 1 1.38 25.55c0-4.737 3.794-8.598 8.495-8.707Z"
    ></path>
    <path
        fill="#25F4EE"
        d="M10.086 29.526c2.14 0 3.89-1.707 3.967-3.83l.006-18.968h3.463a6.78 6.78 0 0 1-.11-1.202h-4.726l-.006 18.969a3.978 3.978 0 0 1-3.967 3.829 3.93 3.93 0 0 1-1.846-.46 3.949 3.949 0 0 0 3.22 1.662Zm13.906-16.36v-1.055a6.506 6.506 0 0 1-3.583-1.068 6.571 6.571 0 0 0 3.583 2.123Z"
    ></path>
    <path
        fill="#FE2C55"
        d="M20.409 11.043a6.54 6.54 0 0 1-1.616-4.315h-1.265a6.557 6.557 0 0 0 2.88 4.316ZM8.706 20.365a3.98 3.98 0 0 0-3.973 3.976c0 1.528.869 2.858 2.134 3.523a3.936 3.936 0 0 1-.754-2.321 3.98 3.98 0 0 1 3.973-3.976c.409 0 .805.07 1.175.185v-4.833a8.837 8.837 0 0 0-1.175-.083c-.07 0-.134.006-.204.006v3.708a3.999 3.999 0 0 0-1.176-.185Z"
    ></path>
    <path
        fill="#FE2C55"
        d="M23.992 13.166v3.676c-2.453 0-4.727-.786-6.58-2.116v9.621c0 4.802-3.902 8.714-8.706 8.714a8.669 8.669 0 0 1-4.988-1.579 8.69 8.69 0 0 0 6.368 2.781c4.797 0 8.707-3.906 8.707-8.714v-9.621a11.25 11.25 0 0 0 6.579 2.116v-4.73c-.48 0-.94-.052-1.38-.148Z"
    ></path>
    <path
        fill="black"
        d="M17.413 24.348v-9.622a11.251 11.251 0 0 0 6.58 2.116v-3.676a6.571 6.571 0 0 1-3.584-2.123 6.61 6.61 0 0 1-2.888-4.315H14.06l-.006 18.968a3.978 3.978 0 0 1-3.967 3.83A3.99 3.99 0 0 1 6.86 27.87a3.991 3.991 0 0 1-2.133-3.523A3.98 3.98 0 0 1 8.7 20.372c.409 0 .805.07 1.175.185v-3.708c-4.701.103-8.495 3.964-8.495 8.701 0 2.29.888 4.373 2.338 5.933a8.669 8.669 0 0 0 4.988 1.58c4.798 0 8.707-3.913 8.707-8.714Zm12.635-11.169h14.774l-1.354 4.232h-3.832v15.644h-4.778V17.41l-4.804.006-.006-4.238Zm38.984 0h15.12l-1.355 4.232h-4.17v15.644h-4.785V17.41l-4.804.006-.006-4.238ZM45.73 19.502h4.733v13.553h-4.708l-.026-13.553Zm6.617-6.374h4.733v9.257l4.689-4.61h5.646l-5.934 5.76 6.644 9.52h-5.213l-4.433-6.598-1.405 1.362v5.236H52.34V13.128h.006Zm50.143 0h4.734v9.257l4.688-4.61h5.647l-5.934 5.76 6.643 9.52h-5.206l-4.433-6.598-1.405 1.362v5.236h-4.734V13.128Zm-54.397 4.826a2.384 2.384 0 0 0 2.382-2.384 2.384 2.384 0 1 0-2.382 2.384Z"
    ></path>
    <path
        fill="#25F4EE"
        d="M83.544 24.942a8.112 8.112 0 0 1 7.474-8.087 8.748 8.748 0 0 0-.709-.026c-4.478 0-8.106 3.631-8.106 8.113 0 4.482 3.628 8.113 8.106 8.113.21 0 .498-.013.71-.026-4.178-.326-7.475-3.823-7.475-8.087Z"
    ></path>
    <path
        fill="#FE2C55"
        d="M92.858 16.83c-.217 0-.505.012-.716.025a8.111 8.111 0 0 1 7.468 8.087 8.112 8.112 0 0 1-7.468 8.087c.211.02.499.026.716.026 4.478 0 8.106-3.631 8.106-8.113 0-4.482-3.628-8.113-8.106-8.113Z"
    ></path>
    <path
        fill="black"
        d="M91.58 28.887a3.94 3.94 0 0 1-3.94-3.945 3.94 3.94 0 1 1 7.882 0c0 2.18-1.77 3.945-3.942 3.945Zm0-12.058c-4.477 0-8.106 3.631-8.106 8.113 0 4.482 3.629 8.113 8.106 8.113 4.478 0 8.106-3.631 8.106-8.113 0-4.482-3.628-8.113-8.106-8.113Z"
    ></path>
</svg>
